X: 11
T: Morrison's Jig
I: Morrison's Jig	J-26	E Dor	jig
%%musicspace	2pt
M: 6/8
R: jig
K: Edor
"Em"E3 BEB| EBE "D"AFD| "Em"E3 BEB| "D"dcB AGF|
"Em"E3 BEB| EBE "D"AFD| "G"G2G FGA| "D"dAG FED :|
"Em"Bee fee| aee "D"fed| "Em"Bee fee| "D"fag fed|
"Em"Bee fee| bee "D"fed| edc d2A| "B7"BAG F3|
"Em"Bee fee| aee "D"fed| "Em"Bee fee| "D"faf def|
"G"g2g gfe| def g2d| "D"edc d2A| "B7"BAG F3|] "Em - go out on"HE4|]
%%text Roaring Jelly  J-26
%%text 10/27/99 

#include "LeftHeader.h"
% ---------- set 30 ----------
% The Tipsy Sailor (Em) / Rakes of Clonmel (Am) / Irishman's Heart (A)
%%text Set 30
%%vskip -1cm
%%scale .75
$SmallLMargin
$SmallRMargin
